X: 13
T:Blarney Pilgrim
M:6/8
R:Jig
A:Ireland
K:G
"G"D3 DEG|"D"A2G ABc|"G"BAG AGE|"Em"GEA "D"GED|
"G"D3 DEG|"D"A2G ABc |"G"BAG AGE|"Em"GED "D"D3:|
"G"ded dBG|"D"AGA "G"BGE|"G"ded dBG|"D"ABA "G"GBd|
"C"g2e "G"dBG|"D"AGA "G"BGD|"C"c2A BGE|"Am"DE "D"DD3 ||
"D"A2D "G"B2D|"D"A2D ABc|"G"BAG AGE|"Em"GEA "D"GED|
"D"A2D "G"B2D|"D"A2D ABc |"G"BAG AGE|"Em"GED "D"D3|]
